usr/share/icons/biglinux-icons-material-dark/22/actions/distribute-horizontal-baseline.svg

<svg xmlns="http://www.w3.org/2000/svg" viewBox="0 0 22 22">
  <defs id="defs3051">
    <style type="text/css" id="current-color-scheme">
      .ColorScheme-Text {
        color:#dedede;
      }
      </style>
  </defs>
 <path 
    style="fill:currentColor;fill-opacity:1;stroke:none" 
    d="M 6 3 L 3 5 L 6 7 L 6 3 z M 10 3 L 10 7 L 13 5 L 10 3 z M 6.1152344 8.0292969 C 4.942497 8.0547767 4.0412739 8.2448894 3.3867188 8.5253906 L 3.7558594 9.7890625 C 4.0694967 9.6870036 5.2557106 9.3300781 5.9511719 9.3300781 L 6.046875 9.3300781 C 7.0150675 9.3682981 7.0820312 9.6988007 7.0820312 10.476562 L 7.0820312 10.783203 L 6.578125 10.859375 C 4.2326354 11.178137 2.9785156 11.445857 2.9785156 13.128906 C 2.9785156 14.30194 3.8920929 15.029297 5.2148438 15.029297 C 6.12849 15.029297 6.7281625 14.672007 7.3417969 14.1875 L 7.5332031 14.900391 L 8.9785156 14.900391 L 8.9785156 10.183594 C 8.9785156 8.7428126 7.9137318 8.0292969 6.2773438 8.0292969 L 6.1152344 8.0292969 z M 12.242188 9.5703125 C 12.242188 11.468813 13.583287 13.041059 14.591797 14.005859 C 13.393007 15.223659 11.914798 15.772328 9.2109375 16.236328 L 9.4882812 17.570312 C 15.515661 16.535912 18.210938 12.745812 18.210938 9.5703125 L 16.734375 9.5703125 C 16.734375 10.493813 16.2679 12.276291 15.46875 12.962891 C 14.65296 12.189791 13.668831 10.994697 13.431641 9.5917969 L 12.242188 9.5703125 z M 7.0820312 11.777344 L 7.0820312 13.345703 C 6.5774896 13.664466 6.1955709 13.894531 5.5410156 13.894531 C 4.9546469 13.894531 4.6679688 13.54896 4.6679688 13.064453 C 4.6679688 12.146426 5.5281055 11.993766 6.578125 11.853516 L 7.0820312 11.777344 z "
    class="ColorScheme-Text"
    />
</svg>

<svg xmlns="http://www.w3.org/2000/svg" viewBox="0 0 22 22">
<defs id="defs3051">
<style id="current-color-scheme" type="text/css">
.ColorScheme-Text{color:#dedede}
</style>
</defs>
<path d="M6 3 3 5l3 2zm4 0v4l3-2zM6.115 8.03c-1.173.025-2.074.215-2.728.495l.369 1.264c.313-.102 1.5-.459 2.195-.459h.096c.968.038 1.035.369 1.035 1.147v.306l-.504.076c-2.345.32-3.6.587-3.6 2.27 0 1.173.914 1.9 2.237 1.9.913 0 1.513-.357 2.127-.841l.191.712H8.98v-4.716c0-1.441-1.065-2.155-2.702-2.155zm6.127 1.54c0 1.899 1.341 3.471 2.35 4.436-1.199 1.218-2.677 1.766-5.381 2.23l.277 1.334c6.028-1.034 8.723-4.824 8.723-8h-1.477c0 .924-.466 2.706-1.265 3.393-.816-.773-1.8-1.968-2.037-3.371zm-5.16 2.207v1.569c-.505.318-.886.549-1.541.549-.586 0-.873-.346-.873-.83 0-.919.86-1.071 1.91-1.211z" class="ColorScheme-Text" style="fill:currentColor;fill-opacity:1;stroke:none"/>
</svg>
